assets/1. F-P/Lacrosse/Color/Lacrosse-color.svg

<svg width="100%" height="100%" viewBox="0 0 32 32" fill="none" xmlns="http://www.w3.org/2000/svg">
<g filter="url(#filter0_ii_18_2554)">
<path d="M25.0956 8.19998L25.3856 7.69998L23.8356 6.79999L24.9856 4.81L24.4856 4.51999L23.3356 6.50998L21.6556 5.53998L22.9756 3.25998L22.4756 2.97L21.1556 5.25L19.4756 4.28L20.6256 2.28998L20.1256 2L18.9756 3.98999L17.4256 3.09L17.1356 3.59L18.6856 4.48999L17.4956 6.53998L15.9456 5.63998L15.6556 6.13998L17.2056 7.03998L16.0156 9.09L15.2856 8.66998L14.9956 9.16998L15.7256 9.59L15.5256 9.92999L16.0256 10.22L16.2256 9.88L17.9056 10.85L16.7156 12.9L14.6156 11.69L14.3256 12.19L16.4256 13.4L14.8856 16.07L15.3856 16.36L16.9256 13.69L19.0256 14.9L19.3156 14.4L17.2156 13.19L18.4056 11.14L20.0856 12.11L19.8856 12.45L20.3856 12.74L20.5856 12.4L21.3156 12.82L21.6056 12.32L20.8756 11.9L22.0656 9.84998L23.6156 10.75L23.9056 10.25L22.3556 9.34998L23.5456 7.29999L25.0956 8.19998ZM19.1756 4.78L20.8556 5.75L19.6656 7.79999L17.9856 6.82999L19.1756 4.78ZM16.5156 9.38998L17.7056 7.34L19.3856 8.31L18.1956 10.36L16.5156 9.38998ZM20.3756 11.62L18.6956 10.65L19.8856 8.59998L21.5656 9.56998L20.3756 11.62ZM21.8556 9.06998L20.1756 8.09998L21.3656 6.04999L23.0456 7.01999L21.8556 9.06998Z" fill="#D9D3E0"/>
</g>
<path d="M25.0956 8.19998L25.3856 7.69998L23.8356 6.79999L24.9856 4.81L24.4856 4.51999L23.3356 6.50998L21.6556 5.53998L22.9756 3.25998L22.4756 2.97L21.1556 5.25L19.4756 4.28L20.6256 2.28998L20.1256 2L18.9756 3.98999L17.4256 3.09L17.1356 3.59L18.6856 4.48999L17.4956 6.53998L15.9456 5.63998L15.6556 6.13998L17.2056 7.03998L16.0156 9.09L15.2856 8.66998L14.9956 9.16998L15.7256 9.59L15.5256 9.92999L16.0256 10.22L16.2256 9.88L17.9056 10.85L16.7156 12.9L14.6156 11.69L14.3256 12.19L16.4256 13.4L14.8856 16.07L15.3856 16.36L16.9256 13.69L19.0256 14.9L19.3156 14.4L17.2156 13.19L18.4056 11.14L20.0856 12.11L19.8856 12.45L20.3856 12.74L20.5856 12.4L21.3156 12.82L21.6056 12.32L20.8756 11.9L22.0656 9.84998L23.6156 10.75L23.9056 10.25L22.3556 9.34998L23.5456 7.29999L25.0956 8.19998ZM19.1756 4.78L20.8556 5.75L19.6656 7.79999L17.9856 6.82999L19.1756 4.78ZM16.5156 9.38998L17.7056 7.34L19.3856 8.31L18.1956 10.36L16.5156 9.38998ZM20.3756 11.62L18.6956 10.65L19.8856 8.59998L21.5656 9.56998L20.3756 11.62ZM21.8556 9.06998L20.1756 8.09998L21.3656 6.04999L23.0456 7.01999L21.8556 9.06998Z" fill="url(#paint0_radial_18_2554)"/>
<path d="M7.6156 29.28C7.0356 28.94 6.83562 28.2 7.16562 27.61L13.8556 16.03L15.9756 17.25L9.28561 28.83C8.94561 29.41 8.1956 29.61 7.6156 29.28Z" fill="#DDCFE4"/>
<path d="M7.6156 29.28C7.0356 28.94 6.83562 28.2 7.16562 27.61L13.8556 16.03L15.9756 17.25L9.28561 28.83C8.94561 29.41 8.1956 29.61 7.6156 29.28Z" fill="url(#paint1_linear_18_2554)"/>
<path d="M7.6156 29.28C7.0356 28.94 6.83562 28.2 7.16562 27.61L13.8556 16.03L15.9756 17.25L9.28561 28.83C8.94561 29.41 8.1956 29.61 7.6156 29.28Z" fill="url(#paint2_linear_18_2554)"/>
<path d="M14.4456 19.89L15.9656 17.25L13.8556 16.02L12.3256 18.67L14.4456 19.89Z" fill="url(#paint3_radial_18_2554)"/>
<g filter="url(#filter1_i_18_2554)">
<path fill-rule="evenodd" clip-rule="evenodd" d="M15.3887 4.3132C16.9138 1.64435 20.3185 0.647339 23.0438 2.08291L23.0456 2.08387C25.9326 3.61689 26.9671 7.2235 25.3415 10.0285C24.4877 11.5215 23.0513 12.4737 21.4859 12.7765C20.9644 12.8831 20.5196 13.1987 20.262 13.6477L20.2614 13.6487L18.9009 16.0096C18.0312 17.5129 16.1039 18.0376 14.596 17.1652C13.0928 16.2956 12.5682 14.3686 13.4401 12.8608C13.4402 12.8606 13.4401 12.8609 13.4401 12.8608L14.7993 10.5023C14.7994 10.5021 14.7992 10.5025 14.7993 10.5023C15.0608 10.0461 15.112 9.50216 14.9417 9.01348L14.9408 9.01076C14.4251 7.5085 14.5374 5.80299 15.3887 4.3132ZM22.4666 3.17663C20.3321 2.05287 17.6573 2.83591 16.4625 4.92678C15.794 6.09656 15.7062 7.43052 16.11 8.60794C16.3991 9.43866 16.3099 10.3544 15.872 11.1177L15.8714 11.1187L14.5109 13.4796C13.9832 14.3917 14.2986 15.5644 15.2153 16.0948C16.1272 16.6224 17.2998 16.3071 17.8302 15.3907C17.8303 15.3905 17.8301 15.3908 17.8302 15.3907L19.1893 13.0323C19.1894 13.0321 19.1892 13.0324 19.1893 13.0323C19.6313 12.2623 20.3855 11.7379 21.2427 11.564L21.2485 11.5628C22.4813 11.325 23.6031 10.5782 24.2687 9.41321L24.2707 9.40976C25.5435 7.21532 24.7383 4.38358 22.4666 3.17663Z" fill="url(#paint4_linear_18_2554)"/>
</g>
<path fill-rule="evenodd" clip-rule="evenodd" d="M15.3887 4.3132C16.9138 1.64435 20.3185 0.647339 23.0438 2.08291L23.0456 2.08387C25.9326 3.61689 26.9671 7.2235 25.3415 10.0285C24.4877 11.5215 23.0513 12.4737 21.4859 12.7765C20.9644 12.8831 20.5196 13.1987 20.262 13.6477L20.2614 13.6487L18.9009 16.0096C18.0312 17.5129 16.1039 18.0376 14.596 17.1652C13.0928 16.2956 12.5682 14.3686 13.4401 12.8608C13.4402 12.8606 13.4401 12.8609 13.4401 12.8608L14.7993 10.5023C14.7994 10.5021 14.7992 10.5025 14.7993 10.5023C15.0608 10.0461 15.112 9.50216 14.9417 9.01348L14.9408 9.01076C14.4251 7.5085 14.5374 5.80299 15.3887 4.3132ZM22.4666 3.17663C20.3321 2.05287 17.6573 2.83591 16.4625 4.92678C15.794 6.09656 15.7062 7.43052 16.11 8.60794C16.3991 9.43866 16.3099 10.3544 15.872 11.1177L15.8714 11.1187L14.5109 13.4796C13.9832 14.3917 14.2986 15.5644 15.2153 16.0948C16.1272 16.6224 17.2998 16.3071 17.8302 15.3907C17.8303 15.3905 17.8301 15.3908 17.8302 15.3907L19.1893 13.0323C19.1894 13.0321 19.1892 13.0324 19.1893 13.0323C19.6313 12.2623 20.3855 11.7379 21.2427 11.564L21.2485 11.5628C22.4813 11.325 23.6031 10.5782 24.2687 9.41321L24.2707 9.40976C25.5435 7.21532 24.7383 4.38358 22.4666 3.17663Z" fill="url(#paint5_linear_18_2554)"/>
<path d="M8.02556 26.12L7.16558 27.6C6.82558 28.18 7.02556 28.93 7.61556 29.27C8.19556 29.61 8.94557 29.41 9.28557 28.82L10.1456 27.34L8.02556 26.12Z" fill="url(#paint6_radial_18_2554)"/>
<path d="M17.4956 26.43C18.8708 26.43 19.9856 25.3152 19.9856 23.94C19.9856 22.5648 18.8708 21.45 17.4956 21.45C16.1204 21.45 15.0056 22.5648 15.0056 23.94C15.0056 25.3152 16.1204 26.43 17.4956 26.43Z" fill="url(#paint7_radial_18_2554)"/>
<path d="M17.4956 26.43C18.8708 26.43 19.9856 25.3152 19.9856 23.94C19.9856 22.5648 18.8708 21.45 17.4956 21.45C16.1204 21.45 15.0056 22.5648 15.0056 23.94C15.0056 25.3152 16.1204 26.43 17.4956 26.43Z" fill="url(#paint8_linear_18_2554)"/>
<g filter="url(#filter2_f_18_2554)">
<path d="M19.8556 1.94748C21.0913 1.74435 22.9533 2.0829 24.4937 3.84335C26.1966 5.78956 25.5263 8.61689 24.7476 9.81874" stroke="url(#paint9_radial_18_2554)" stroke-width="0.3" stroke-linecap="round"/>
</g>
<g filter="url(#filter3_f_18_2554)">
<path d="M16.401 4.11419C15.9722 4.53174 15.1891 5.82725 15.487 7.66895C15.8594 9.97109 15.9609 9.90338 15.3177 11.0206C14.8031 11.9144 14.3133 12.6569 14.1327 12.9165C13.8732 13.255 13.4624 14.1962 13.8958 15.2524C14.3291 16.3087 15.1371 16.7082 15.487 16.7759" stroke="url(#paint10_linear_18_2554)" stroke-width="0.2" stroke-linecap="round"/>
</g>
<defs>
<filter id="filter0_ii_18_2554" x="14.2256" y="1.9" width="11.2601" height="14.56" filterUnits="userSpaceOnUse" color-interpolation-filters="sRGB">
<feFlood flood-opacity="0" result="BackgroundImageFix"/>
<feBlend mode="normal" in="SourceGraphic" in2="BackgroundImageFix" result="shape"/>
<feColorMatrix in="SourceAlpha" type="matrix" values="0 0 0 0 0 0 0 0 0 0 0 0 0 0 0 0 0 0 127 0" result="hardAlpha"/>
<feOffset dx="0.1" dy="-0.1"/>
<feGaussianBlur stdDeviation="0.125"/>
<feComposite in2="hardAlpha" operator="arithmetic" k2="-1" k3="1"/>
<feColorMatrix type="matrix" values="0 0 0 0 0.713726 0 0 0 0 0.639216 0 0 0 0 0.780392 0 0 0 1 0"/>
<feBlend mode="normal" in2="shape" result="effect1_innerShadow_18_2554"/>
<feColorMatrix in="SourceAlpha" type="matrix" values="0 0 0 0 0 0 0 0 0 0 0 0 0 0 0 0 0 0 127 0" result="hardAlpha"/>
<feOffset dx="-0.1" dy="0.1"/>
<feGaussianBlur stdDeviation="0.075"/>
<feComposite in2="hardAlpha" operator="arithmetic" k2="-1" k3="1"/>
<feColorMatrix type="matrix" values="0 0 0 0 0.917647 0 0 0 0 0.909804 0 0 0 0 0.94902 0 0 0 1 0"/>
<feBlend mode="normal" in2="effect1_innerShadow_18_2554" result="effect2_innerShadow_18_2554"/>
</filter>
<filter id="filter1_i_18_2554" x="13.0181" y="1.22648" width="13.2933" height="16.361" filterUnits="userSpaceOnUse" color-interpolation-filters="sRGB">
<feFlood flood-opacity="0" result="BackgroundImageFix"/>
<feBlend mode="normal" in="SourceGraphic" in2="BackgroundImageFix" result="shape"/>
<feColorMatrix in="SourceAlpha" type="matrix" values="0 0 0 0 0 0 0 0 0 0 0 0 0 0 0 0 0 0 127 0" result="hardAlpha"/>
<feOffset dx="0.2" dy="-0.2"/>
<feGaussianBlur stdDeviation="0.2"/>
<feComposite in2="hardAlpha" operator="arithmetic" k2="-1" k3="1"/>
<feColorMatrix type="matrix" values="0 0 0 0 0.235294 0 0 0 0 0.556863 0 0 0 0 0.827451 0 0 0 1 0"/>
<feBlend mode="normal" in2="shape" result="effect1_innerShadow_18_2554"/>
</filter>
<filter id="filter2_f_18_2554" x="19.2556" y="1.29514" width="6.90208" height="9.12361" filterUnits="userSpaceOnUse" color-interpolation-filters="sRGB">
<feFlood flood-opacity="0" result="BackgroundImageFix"/>
<feBlend mode="normal" in="SourceGraphic" in2="BackgroundImageFix" result="shape"/>
<feGaussianBlur stdDeviation="0.225" result="effect1_foregroundBlur_18_2554"/>
</filter>
<filter id="filter3_f_18_2554" x="13.3063" y="3.71419" width="3.49471" height="13.4617" filterUnits="userSpaceOnUse" color-interpolation-filters="sRGB">
<feFlood flood-opacity="0" result="BackgroundImageFix"/>
<feBlend mode="normal" in="SourceGraphic" in2="BackgroundImageFix" result="shape"/>
<feGaussianBlur stdDeviation="0.15" result="effect1_foregroundBlur_18_2554"/>
</filter>
<radialGradient id="paint0_radial_18_2554" cx="0" cy="0" r="1" gradientUnits="userSpaceOnUse" gradientTransform="translate(16.3671 14.7277) rotate(-59.9511) scale(13.4544 8.55519)">
<stop offset="0.858247" stop-color="#9B96B6" stop-opacity="0"/>
<stop offset="0.990154" stop-color="#9B96B6"/>
</radialGradient>
<linearGradient id="paint1_linear_18_2554" x1="10.0648" y1="21.8437" x2="11.6585" y2="22.7345" gradientUnits="userSpaceOnUse">
<stop offset="0.137092" stop-color="#B8A09F"/>
<stop offset="1" stop-color="#B8A09F" stop-opacity="0"/>
</linearGradient>
<linearGradient id="paint2_linear_18_2554" x1="13.0335" y1="22.4922" x2="12.5179" y2="22.1875" gradientUnits="userSpaceOnUse">
<stop stop-color="#C9B3DB"/>
<stop offset="1" stop-color="#C9B3DB" stop-opacity="0"/>
</linearGradient>
<radialGradient id="paint3_radial_18_2554" cx="0" cy="0" r="1" gradientUnits="userSpaceOnUse" gradientTransform="translate(13.9296 19.6028) rotate(-60.4993) scale(2.95625 1.99784)">
<stop stop-color="#3583DC"/>
<stop offset="1" stop-color="#2059B5"/>
</radialGradient>
<linearGradient id="paint4_linear_18_2554" x1="21.9518" y1="4.89389" x2="14.2916" y2="16.7692" gradientUnits="userSpaceOnUse">
<stop stop-color="#24B1E9"/>
<stop offset="1" stop-color="#2E2DB8"/>
</linearGradient>
<linearGradient id="paint5_linear_18_2554" x1="16.1979" y1="13.8475" x2="13.9973" y2="17.5875" gradientUnits="userSpaceOnUse">
<stop stop-color="#2E2DB8" stop-opacity="0"/>
<stop offset="1" stop-color="#2E2DB8"/>
</linearGradient>
<radialGradient id="paint6_radial_18_2554" cx="0" cy="0" r="1" gradientUnits="userSpaceOnUse" gradientTransform="translate(10.1456 27) rotate(122.853) scale(2.89924 1.85481)">
<stop stop-color="#5D4885"/>
<stop offset="1" stop-color="#51316C"/>
</radialGradient>
<radialGradient id="paint7_radial_18_2554" cx="0" cy="0" r="1" gradientUnits="userSpaceOnUse" gradientTransform="translate(19.3173 22.4028) rotate(132.614) scale(4.13047 3.02059)">
<stop offset="0.14067" stop-color="#FF9866"/>
<stop offset="1" stop-color="#FF632A"/>
</radialGradient>
<linearGradient id="paint8_linear_18_2554" x1="16.237" y1="26.43" x2="17.9393" y2="24.1861" gradientUnits="userSpaceOnUse">
<stop stop-color="#CF4968"/>
<stop offset="1" stop-color="#CF4968" stop-opacity="0"/>
</linearGradient>
<radialGradient id="paint9_radial_18_2554" cx="0" cy="0" r="1" gradientUnits="userSpaceOnUse" gradientTransform="translate(24.9677 3.89413) rotate(139.467) scale(4.6103 5.52374)">
<stop stop-color="#57CDFF"/>
<stop offset="1" stop-color="#57CDFF" stop-opacity="0"/>
</radialGradient>
<linearGradient id="paint10_linear_18_2554" x1="14.4036" y1="15.828" x2="20.4778" y2="13.5752" gradientUnits="userSpaceOnUse">
<stop stop-color="#5972DA"/>
<stop offset="0.0885417" stop-color="#50A6EC" stop-opacity="0"/>
<stop offset="0.484855" stop-color="#50A6EC" stop-opacity="0"/>
<stop offset="0.762912" stop-color="#50A6EC"/>
<stop offset="1" stop-color="#50A6EC" stop-opacity="0"/>
</linearGradient>
</defs>
</svg>

<svg width="100%" height="100%" viewBox="0 0 32 32" xmlns="http://www.w3.org/2000/svg"><g filter="url(#a)"><path fill="#D9D3E0" d="m25.096 8.2.29-.5-1.55-.9 1.15-1.99-.5-.29-1.15 1.99-1.68-.97 1.32-2.28-.5-.29-1.32 2.28-1.68-.97 1.15-1.99-.5-.29-1.15 1.99-1.55-.9-.29.5 1.55.9-1.19 2.05-1.55-.9-.29.5 1.55.9-1.19 2.05-.73-.42-.29.5.73.42-.2.34.5.29.2-.34 1.68.97-1.19 2.05-2.1-1.21-.29.5 2.1 1.21-1.54 2.67.5.29 1.54-2.67 2.1 1.21.29-.5-2.1-1.21 1.19-2.05 1.68.97-.2.34.5.29.2-.34.73.42.29-.5-.73-.42 1.19-2.05 1.55.9.29-.5-1.55-.9 1.19-2.05zm-5.92-3.42 1.68.97-1.19 2.05-1.68-.97zm-2.66 4.61 1.19-2.05 1.68.97-1.19 2.05zm3.86 2.23-1.68-.97 1.19-2.05 1.68.97zm1.48-2.55-1.68-.97 1.19-2.05 1.68.97z"/></g><path fill="url(#b)" d="m25.096 8.2.29-.5-1.55-.9 1.15-1.99-.5-.29-1.15 1.99-1.68-.97 1.32-2.28-.5-.29-1.32 2.28-1.68-.97 1.15-1.99-.5-.29-1.15 1.99-1.55-.9-.29.5 1.55.9-1.19 2.05-1.55-.9-.29.5 1.55.9-1.19 2.05-.73-.42-.29.5.73.42-.2.34.5.29.2-.34 1.68.97-1.19 2.05-2.1-1.21-.29.5 2.1 1.21-1.54 2.67.5.29 1.54-2.67 2.1 1.21.29-.5-2.1-1.21 1.19-2.05 1.68.97-.2.34.5.29.2-.34.73.42.29-.5-.73-.42 1.19-2.05 1.55.9.29-.5-1.55-.9 1.19-2.05zm-5.92-3.42 1.68.97-1.19 2.05-1.68-.97zm-2.66 4.61 1.19-2.05 1.68.97-1.19 2.05zm3.86 2.23-1.68-.97 1.19-2.05 1.68.97zm1.48-2.55-1.68-.97 1.19-2.05 1.68.97z"/><path fill="#DDCFE4" d="M7.616 29.28c-.58-.34-.78-1.08-.45-1.67l6.69-11.58 2.12 1.22-6.69 11.58c-.34.58-1.09.78-1.67.45"/><path fill="url(#c)" d="M7.616 29.28c-.58-.34-.78-1.08-.45-1.67l6.69-11.58 2.12 1.22-6.69 11.58c-.34.58-1.09.78-1.67.45"/><path fill="url(#d)" d="M7.616 29.28c-.58-.34-.78-1.08-.45-1.67l6.69-11.58 2.12 1.22-6.69 11.58c-.34.58-1.09.78-1.67.45"/><path fill="url(#e)" d="m14.446 19.89 1.52-2.64-2.11-1.23-1.53 2.65z"/><g filter="url(#f)"><path fill="url(#g)" fill-rule="evenodd" d="M15.389 4.313c1.525-2.669 4.93-3.666 7.655-2.23h.002c2.887 1.534 3.921 5.14 2.296 7.945a5.66 5.66 0 0 1-3.856 2.749 1.82 1.82 0 0 0-1.224.87v.002l-1.361 2.36a3.153 3.153 0 0 1-4.305 1.156 3.153 3.153 0 0 1-1.156-4.304l1.36-2.359c.26-.456.312-1 .142-1.489l-.001-.002a5.7 5.7 0 0 1 .448-4.698m7.078-1.136c-2.135-1.124-4.81-.341-6.004 1.75a4.47 4.47 0 0 0-.353 3.68c.29.832.2 1.747-.238 2.51v.002l-1.361 2.36a1.917 1.917 0 0 0 .704 2.616 1.917 1.917 0 0 0 2.615-.704l1.36-2.359a3.06 3.06 0 0 1 2.053-1.468l.006-.001a4.43 4.43 0 0 0 3.02-2.15l.002-.003c1.273-2.195.467-5.026-1.804-6.233" clip-rule="evenodd"/></g><path fill="url(#h)" fill-rule="evenodd" d="M15.389 4.313c1.525-2.669 4.93-3.666 7.655-2.23h.002c2.887 1.534 3.921 5.14 2.296 7.945a5.66 5.66 0 0 1-3.856 2.749 1.82 1.82 0 0 0-1.224.87v.002l-1.361 2.36a3.153 3.153 0 0 1-4.305 1.156 3.153 3.153 0 0 1-1.156-4.304l1.36-2.359c.26-.456.312-1 .142-1.489l-.001-.002a5.7 5.7 0 0 1 .448-4.698m7.078-1.136c-2.135-1.124-4.81-.341-6.004 1.75a4.47 4.47 0 0 0-.353 3.68c.29.832.2 1.747-.238 2.51v.002l-1.361 2.36a1.917 1.917 0 0 0 .704 2.616 1.917 1.917 0 0 0 2.615-.704l1.36-2.359a3.06 3.06 0 0 1 2.053-1.468l.006-.001a4.43 4.43 0 0 0 3.02-2.15l.002-.003c1.273-2.195.467-5.026-1.804-6.233" clip-rule="evenodd"/><path fill="url(#i)" d="m8.026 26.12-.86 1.48c-.34.58-.14 1.33.45 1.67.58.34 1.33.14 1.67-.45l.86-1.48z"/><path fill="url(#j)" d="M17.496 26.43a2.49 2.49 0 1 0 0-4.98 2.49 2.49 0 0 0 0 4.98"/><path fill="url(#k)" d="M17.496 26.43a2.49 2.49 0 1 0 0-4.98 2.49 2.49 0 0 0 0 4.98"/><g filter="url(#l)"><path stroke="url(#m)" stroke-linecap="round" stroke-width=".3" d="M19.856 1.947c1.235-.203 3.097.136 4.638 1.896 1.703 1.947 1.032 4.774.254 5.976"/></g><g filter="url(#n)"><path stroke="url(#o)" stroke-linecap="round" stroke-width=".2" d="M16.401 4.114c-.429.418-1.212 1.713-.914 3.555.372 2.302.474 2.234-.17 3.352a30 30 0 0 1-1.184 1.895c-.26.339-.67 1.28-.237 2.336.433 1.057 1.241 1.456 1.591 1.524"/></g><defs><linearGradient id="c" x1="10.065" x2="11.659" y1="21.844" y2="22.735" gradientUnits="userSpaceOnUse"><stop offset=".137" stop-color="#B8A09F"/><stop offset="1" stop-color="#B8A09F" stop-opacity="0"/></linearGradient><linearGradient id="d" x1="13.034" x2="12.518" y1="22.492" y2="22.188" gradientUnits="userSpaceOnUse"><stop stop-color="#C9B3DB"/><stop offset="1" stop-color="#C9B3DB" stop-opacity="0"/></linearGradient><linearGradient id="g" x1="21.952" x2="14.292" y1="4.894" y2="16.769" gradientUnits="userSpaceOnUse"><stop stop-color="#24B1E9"/><stop offset="1" stop-color="#2E2DB8"/></linearGradient><linearGradient id="h" x1="16.198" x2="13.997" y1="13.848" y2="17.587" gradientUnits="userSpaceOnUse"><stop stop-color="#2E2DB8" stop-opacity="0"/><stop offset="1" stop-color="#2E2DB8"/></linearGradient><linearGradient id="k" x1="16.237" x2="17.939" y1="26.43" y2="24.186" gradientUnits="userSpaceOnUse"><stop stop-color="#CF4968"/><stop offset="1" stop-color="#CF4968" stop-opacity="0"/></linearGradient><linearGradient id="o" x1="14.404" x2="20.478" y1="15.828" y2="13.575" gradientUnits="userSpaceOnUse"><stop stop-color="#5972DA"/><stop offset=".089" stop-color="#50A6EC" stop-opacity="0"/><stop offset=".485" stop-color="#50A6EC" stop-opacity="0"/><stop offset=".763" stop-color="#50A6EC"/><stop offset="1" stop-color="#50A6EC" stop-opacity="0"/></linearGradient><radialGradient id="b" cx="0" cy="0" r="1" gradientTransform="matrix(6.73714 -11.6461 7.40536 4.28392 16.367 14.728)" gradientUnits="userSpaceOnUse"><stop offset=".858" stop-color="#9B96B6" stop-opacity="0"/><stop offset=".99" stop-color="#9B96B6"/></radialGradient><radialGradient id="e" cx="0" cy="0" r="1" gradientTransform="rotate(-60.499 23.772 -2.142)scale(2.95625 1.99784)" gradientUnits="userSpaceOnUse"><stop stop-color="#3583DC"/><stop offset="1" stop-color="#2059B5"/></radialGradient><radialGradient id="i" cx="0" cy="0" r="1" gradientTransform="rotate(122.853 -2.28 16.263)scale(2.89924 1.85481)" gradientUnits="userSpaceOnUse"><stop stop-color="#5D4885"/><stop offset="1" stop-color="#51316C"/></radialGradient><radialGradient id="j" cx="0" cy="0" r="1" gradientTransform="matrix(-2.79656 3.03974 -2.22295 -2.0451 19.317 22.403)" gradientUnits="userSpaceOnUse"><stop offset=".141" stop-color="#FF9866"/><stop offset="1" stop-color="#FF632A"/></radialGradient><radialGradient id="m" cx="0" cy="0" r="1" gradientTransform="matrix(-3.50397 2.99617 -3.5898 -4.19822 24.968 3.894)" gradientUnits="userSpaceOnUse"><stop stop-color="#57CDFF"/><stop offset="1" stop-color="#57CDFF" stop-opacity="0"/></radialGradient><filter id="a" width="11.26" height="14.56" x="14.226" y="1.9" color-interpolation-filters="sRGB" filterUnits="userSpaceOnUse"><feFlood flood-opacity="0" result="BackgroundImageFix"/><feBlend in="SourceGraphic" in2="BackgroundImageFix" result="shape"/><feColorMatrix in="SourceAlpha" result="hardAlpha" values="0 0 0 0 0 0 0 0 0 0 0 0 0 0 0 0 0 0 127 0"/><feOffset dx=".1" dy="-.1"/><feGaussianBlur stdDeviation=".125"/><feComposite in2="hardAlpha" k2="-1" k3="1" operator="arithmetic"/><feColorMatrix values="0 0 0 0 0.713726 0 0 0 0 0.639216 0 0 0 0 0.780392 0 0 0 1 0"/><feBlend in2="shape" result="effect1_innerShadow_18_2554"/><feColorMatrix in="SourceAlpha" result="hardAlpha" values="0 0 0 0 0 0 0 0 0 0 0 0 0 0 0 0 0 0 127 0"/><feOffset dx="-.1" dy=".1"/><feGaussianBlur stdDeviation=".075"/><feComposite in2="hardAlpha" k2="-1" k3="1" operator="arithmetic"/><feColorMatrix values="0 0 0 0 0.917647 0 0 0 0 0.909804 0 0 0 0 0.94902 0 0 0 1 0"/><feBlend in2="effect1_innerShadow_18_2554" result="effect2_innerShadow_18_2554"/></filter><filter id="f" width="13.293" height="16.361" x="13.018" y="1.226" color-interpolation-filters="sRGB" filterUnits="userSpaceOnUse"><feFlood flood-opacity="0" result="BackgroundImageFix"/><feBlend in="SourceGraphic" in2="BackgroundImageFix" result="shape"/><feColorMatrix in="SourceAlpha" result="hardAlpha" values="0 0 0 0 0 0 0 0 0 0 0 0 0 0 0 0 0 0 127 0"/><feOffset dx=".2" dy="-.2"/><feGaussianBlur stdDeviation=".2"/><feComposite in2="hardAlpha" k2="-1" k3="1" operator="arithmetic"/><feColorMatrix values="0 0 0 0 0.235294 0 0 0 0 0.556863 0 0 0 0 0.827451 0 0 0 1 0"/><feBlend in2="shape" result="effect1_innerShadow_18_2554"/></filter><filter id="l" width="6.902" height="9.124" x="19.256" y="1.295" color-interpolation-filters="sRGB" filterUnits="userSpaceOnUse"><feFlood flood-opacity="0" result="BackgroundImageFix"/><feBlend in="SourceGraphic" in2="BackgroundImageFix" result="shape"/><feGaussianBlur result="effect1_foregroundBlur_18_2554" stdDeviation=".225"/></filter><filter id="n" width="3.495" height="13.462" x="13.306" y="3.714" color-interpolation-filters="sRGB" filterUnits="userSpaceOnUse"><feFlood flood-opacity="0" result="BackgroundImageFix"/><feBlend in="SourceGraphic" in2="BackgroundImageFix" result="shape"/><feGaussianBlur result="effect1_foregroundBlur_18_2554" stdDeviation=".15"/></filter></defs></svg>
